X:204
T:le Tourment
C:Jean-Paul Loyer
S:Marc-Antoine Bérube
Z:robin.beech@mcgill.ca
R:jig
M:6/8
L:1/8
K:G
E3 EFG | DGF GAB | d2d- dcB | cBA BAG |
E3 EFG | DGF GAB | dcB cBA |1 DGF G2F :|2 DGF G3 |:
GFG AGA | Bdc BAG | E2c cBc | d3 def | g3 d3 |
e3 B3 | cBA BAG |1 AGF DEF :|2 AGF G2F |]
